X:1
T:Raise your triumphant songs
T:Raise your triumphant songs - Cornhill (Thomas Clark)
C:Thomas Clark
Z:p22, A Sett of Psalm
Z:& Hymn Tunes,
Z:London: [1805]
%%score [ 1 2 3 4 ]
L:1/8
M:2/2
K:Bb
V:1 treble nm="Air" snm="S."
V:2 treble nm="[Alto]" snm="A."
V:3 treble-8 transpose=-12 nm="Tenor" snm="T."
V:4 bass nm="[Bass]" snm="B."
V:1
 B4 F2 e2 | (d2 c2) (B2 A2) | B6 c2 | (d3 c B2) d2 | c6 c2 | c2 d2 c2 B2 | A4 G4 | F8 |: B4 B2 B2 | %9
w: ’Twas mer- cy|fill’d _ the _|throne, And|wrath _ _ stood|si- lent|by, and wrath stood|si- lent|by,|When Christ was|
w: Raise your tri-|um- * phant _|songs To|an _ _ im-|mor- tal|tune, to an im-|mor- tal|tune:|Let the wide|
w: Sing how e-|ter- * nal _|love Its|chief _ _ be-|lov- ed|chose, its chief be-|lov- ed|chose,|And bid him|
 G6 G2 | c6 B2 | A8 | f4 f2 f2 | d6 c2 | (B2 cd e2) d2 | c6 c2 | (f3 e d3 c | B2 F2 B2) e2 | %18
w: sent with|par- dons|down,|when Christ was|sent with|par- * * * dons|down To|re- * * *|* * * bels|
w: earth re-|sound the|deeds,|let the wide|earth re-|sound _ _ _ the|deeds Ce-|les- * * *|* * * tial|
w: raise our|wretch- ed|race,|and bid him|raise our|wretch- * * * ed|race From|their _ _ _|_ _ _ a-|
 d4 c4 | B8 :| %20
w: doom’d to|die.|
w: grace has|done.|
w: byss of|woes.|
V:2
 D4 F2 G2 | F4 F4 | F6 F2 | F2 F2 F2 F2 | F4 =E4 | F6 F2 | F4 =E4 | F8 |: z8 | z8 | E4 E2 E2 | %11
w: ’Twas mer- cy|fill’d the|throne, And|wrath stood si- lent|by, and|wrath stood|si- lent|by,|||When Christ was|
w: Raise your tri-|um- phant|songs To|an im- mor- tal|tune, to|an im-|mor- tal|tune:|||Let the wide|
w: Sing how e-|ter- nal|love Its|chief be- lov- ed|chose, its|chief be-|lov- ed|chose,|||And bid him|
 C6 C2 | F6 F2 | F8 | z2 F2 F2 F2 | F6 F2 | F2 F2 F2 F2 | F2 D2 F2 G2 | F4 F4 | D8 :| %20
w: sent with|par- dons|down,|with par- dons|down To|re- bels doom’d to|die, to re- bels|doom’d to|die.|
w: earth re-|sound the|deeds,|re- sound the|deeds Ce-|les- tial grace has|done, ce- les- tial|grace has|done.|
w: raise our|wretch- ed|race,|our wretch- ed|race, From|their a- byss of|woes, from their a-|byss of|woes.|
V:3
 B4 B2 B2 | (f2 e2) (d2 c2) | d6 A2 | B2 c2 d2 B2 | G4 G4 | (A2 B2 c2) d2 | c4 c4 | A8 |: z8 | z8 | %10
w: ’Twas mer- cy|fill’d _ the _|throne, And|wrath stood si- lent|by, and|wrath _ _ stood|si- lent|by,|||
w: Raise your tri-|um- * phant _|songs To|an im- mor- tal|tune, to|an _ _ im-|mor- tal|tune:|||
w: Sing how e-|ter- * nal _|love Its|chief be- lov- ed|chose, its|chief _ _ be-|lov- ed|chose,|||
 z8 | z8 | d4 d2 d2 | B6 A2 | (B4 c2) B2 | A6 c2 | (d3 c B3 c | d6) c2 | B4 A4 | B8 :| %20
w: ||When Christ was|sent with|par- * dons|down, To|re- * * *|* bels|doom’d to|die.|
w: ||Let the wide|earth re-|sound _ the|deeds Ce-|les- * * *|* tial|grace has|done.|
w: ||And bid him|raise our|wretch- * ed|race From|their _ _ _|_ a-|byss of|woes.|
V:4
 B,,4"^6" D,2 E,2 |"^8""^7" F,4"^6""^5" F,4 | B,,6 F,2 | B,6 B,,2 |"^54" C,6"^ü§" C,2 | %5
w: ’Twas mer- cy|fill’d the|throne, And|wrath stood|si- lent|
w: Raise your tri-|um- phant|songs To|an im-|mor- tal|
w: Sing how e-|ter- nal|love Its|chief be-|lov- ed|
"^53""^64" F,4"^6" A,,2 B,,2 |"^64" C,4"^5§" C,4 | F,8 |: z8 | E,4 E,2 E,2 | C,6"^7" C,2 | %11
w: by, wrath stood|si- lent|by,||When Christ was|sent with|
w: tune, an im-|mor- tal|tune:||Let the wide|earth re-|
w: chose, chief be-|lov- ed|chose,||And bid him|raise our|
 F,6"^42" E,2 |"^6" D,8 | B,4 B,2 F,2 | %14
w: par- dons|down,|when Christ was|
w: sound the|deeds,|let the wide|
w: wretch- ed|race,|and bid him|
"^Notes:Only the first verse of the text is given in the source: a selection of three subsequent verses has been addededitorially.The order of parts in the source is Tenor - [Alto] - Air - [Bass], with the alto part printed in the treble clef an octaveabove sounding pitch.""^6" D,2 B,,2"^65" A,,2 B,,2 | %15
w: sent with par- dons|
w: earth re- sound the|
w: raise our wretch- ed|
 F,6 F,2 |"^6" D,2 B,,2"^6" D,2 F,2 | B,2 B,,2"^6" D,2"^6" E,2 |"^64" F,4"^53" F,4 | B,,8 :| %20
w: down To|re- bels doom’d to|die, to re- bels|doom’d to|die.|
w: deeds Ce-|les- tial grace has|done, ce- les- tial|grace has|done.|
w: race From|their a- byss of|woes, from their a-|byss of|woes.|

